tools/download-figma-icons/icons/outlined-medium/error.svg

<svg width="24" height="24" viewBox="0 0 24 24" fill="none" xmlns="http://www.w3.org/2000/svg">
<path fill-rule="evenodd" clip-rule="evenodd" d="M12 1.5C6.21 1.5 1.5 6.21 1.5 12C1.5 17.79 6.21 22.5 12 22.5C17.79 22.5 22.5 17.79 22.5 12C22.5 6.21 17.79 1.5 12 1.5ZM12 24C5.3835 24 0 18.6165 0 12C0 5.3835 5.3835 0 12 0C18.6165 0 24 5.3835 24 12C24 18.6165 18.6165 24 12 24ZM12.6782 15.8101C12.85 15.9901 12.955 16.2301 12.955 16.4851C12.955 16.7701 12.85 16.9801 12.6782 17.1601C12.4982 17.3701 12.2507 17.4451 12.0032 17.4451C11.7182 17.4451 11.4707 17.3401 11.29 17.1601C11.1475 16.9801 11.0425 16.7701 11.0425 16.4851C11.0425 16.2301 11.1475 15.9901 11.3275 15.8101C11.6807 15.4576 12.3182 15.4576 12.6782 15.8101ZM12.955 12.5774V7.53735C12.955 7.00485 12.535 6.57735 11.9958 6.57735C11.4633 6.57735 11.035 7.00485 11.035 7.53735V12.5774C11.035 13.1099 11.4633 13.5374 11.9958 13.5374C12.535 13.5374 12.955 13.1099 12.955 12.5774Z" fill="black"/>
</svg>

<svg width="24" height="24" viewBox="0 0 24 24" fill="none" xmlns="http://www.w3.org/2000/svg"><path fill-rule="evenodd" clip-rule="evenodd" d="M12 1.5C6.21 1.5 1.5 6.21 1.5 12S6.21 22.5 12 22.5 22.5 17.79 22.5 12 17.79 1.5 12 1.5ZM12 24C5.383 24 0 18.616 0 12 0 5.383 5.383 0 12 0c6.616 0 12 5.383 12 12 0 6.616-5.384 12-12 12Zm.678-8.19c.172.18.277.42.277.675a.929.929 0 0 1-.277.675c-.18.21-.427.285-.675.285a.993.993 0 0 1-.713-.285 1.043 1.043 0 0 1-.247-.675c0-.255.105-.495.285-.675.353-.352.99-.352 1.35 0Zm.277-3.233v-5.04c0-.532-.42-.96-.96-.96a.958.958 0 0 0-.96.96v5.04c0 .533.428.96.96.96.54 0 .96-.427.96-.96Z" fill="currentColor"/></svg>
